file-chart-check-outline.svg

<svg fill="currentColor" viewBox="0 0 24 24"><path d="m23.5 17-5 5-3.5-3.5 1.5-1.5 2 2 3.5-3.5zM6 2c-1.1 0-2 .9-2 2v16c0 1.1.9 2 2 2h7.8c-.4-.6-.6-1.3-.7-2H6V4h7v5h5v4.1c.3-.1.7-.1 1-.1s.7 0 1 .1V8l-6-6zm5 9v8h2v-8zm-4 2v6h2v-6z"/></svg>

<svg  viewBox="0 0 24 24" fill="currentColor"><path  d="M23.5 17L18.5 22L15 18.5L16.5 17L18.5 19L22 15.5L23.5 17M6 2C4.9 2 4 2.9 4 4V20C4 21.1 4.9 22 6 22H13.8C13.4 21.4 13.2 20.7 13.1 20H6V4H13V9H18V13.1C18.3 13 18.7 13 19 13C19.3 13 19.7 13 20 13.1V8L14 2H6M11 11V19H13V11H11M7 13V19H9V13H7Z"/></svg>
